dist/images/briefcase.svg

<svg width="25" height="20" viewBox="0 0 25 20" fill="none" xmlns="http://www.w3.org/2000/svg">
<path d="M11.5763 10.001H13.4237C13.6943 10.001 13.9425 10.1084 14.1195 10.2835C14.2985 10.4586 14.4084 10.6993 14.4084 10.9639V14.7717C14.4084 15.0363 14.2985 15.277 14.1195 15.4521C13.9404 15.6272 13.6943 15.7346 13.4237 15.7346H11.5763C11.3057 15.7346 11.0596 15.6272 10.8805 15.4521C10.7015 15.277 10.5916 15.0363 10.5916 14.7717V10.9659C10.5916 10.7013 10.7015 10.4586 10.8805 10.2855C11.0596 10.1104 11.3057 10.001 11.5763 10.001ZM1.41805 2.77728H7.82674V0.982791C7.82674 0.712225 7.93864 0.467522 8.12175 0.288471C8.30282 0.10942 8.5551 0 8.83179 0H16.1682C16.4449 0 16.6952 0.10942 16.8783 0.288471C17.0593 0.465533 17.1733 0.712225 17.1733 0.982791V2.77927H23.582C23.9726 2.77927 24.3266 2.93445 24.585 3.18711C24.8413 3.43778 25.002 3.78593 25.002 4.16791V18.6153C25.002 18.9973 24.8433 19.3435 24.585 19.5961C24.3286 19.8468 23.9726 20.004 23.582 20.004H1.41805C1.02743 20.004 0.673421 19.8488 0.415039 19.5961C0.158691 19.3415 0 18.9953 0 18.6133V4.16592C0 3.78395 0.158691 3.43778 0.417074 3.18512C0.673421 2.93445 1.02743 2.77728 1.41805 2.77728ZM16.1682 0.861434H8.83179C8.7972 0.861434 8.76668 0.875361 8.7443 0.897245C8.72192 0.919129 8.70768 0.94897 8.70768 0.982791V2.75938H16.2923V0.982791C16.2923 0.94897 16.2781 0.919129 16.2557 0.897245C16.2333 0.873371 16.2028 0.861434 16.1682 0.861434ZM0.878906 11.0673C4.11987 11.9785 6.51652 12.3704 9.75952 12.5177V13.3791C6.51856 13.2339 4.12191 12.8519 0.878906 11.9586V18.6114C0.878906 18.7566 0.939942 18.8879 1.0376 18.9834C1.13525 19.0789 1.26953 19.1386 1.41805 19.1386H23.5799C23.7284 19.1386 23.8627 19.0789 23.9604 18.9834C24.058 18.8879 24.1191 18.7566 24.1191 18.6114V11.9606C20.8822 12.8519 18.63 13.2339 15.3951 13.3791V12.5177C18.632 12.3684 20.8842 11.9765 24.1191 11.0673V4.16592C24.1191 4.02069 24.058 3.88939 23.9604 3.79389C23.8627 3.6984 23.7284 3.63871 23.5799 3.63871H1.41805C1.26953 3.63871 1.13525 3.6984 1.0376 3.79389C0.939942 3.88939 0.878906 4.02069 0.878906 4.16592V11.0673ZM13.4237 10.8624H11.5763C11.5479 10.8624 11.5214 10.8744 11.5031 10.8923C11.4848 10.9102 11.4726 10.936 11.4726 10.9639V14.7717C11.4726 14.7996 11.4848 14.8254 11.5031 14.8433C11.5214 14.8632 11.5479 14.8732 11.5763 14.8732H13.4237C13.4522 14.8732 13.4786 14.8612 13.4969 14.8433C13.5152 14.8254 13.5274 14.7996 13.5274 14.7717V10.9659C13.5274 10.938 13.5152 10.9122 13.4969 10.8943C13.4786 10.8744 13.4522 10.8624 13.4237 10.8624Z" fill="#2D2E33"/>
</svg>

<svg width="25" height="20" fill="none" xmlns="http://www.w3.org/2000/svg"><path d="M11.576 10.001h1.848c.27 0 .519.107.696.283a.95.95 0 0 1 .288.68v3.808a.95.95 0 0 1-.288.68.992.992 0 0 1-.696.283h-1.848a.992.992 0 0 1-.696-.283.95.95 0 0 1-.288-.68v-3.806c0-.265.11-.507.288-.68a.994.994 0 0 1 .696-.285ZM1.418 2.777h6.409V.983c0-.27.112-.515.295-.695.18-.179.433-.288.71-.288h7.336c.277 0 .527.11.71.288a.972.972 0 0 1 .295.695v1.796h6.409c.39 0 .745.155 1.003.408.256.25.417.599.417.98v14.448c0 .382-.159.729-.417.981-.256.25-.612.408-1.003.408H1.418a1.43 1.43 0 0 1-1.003-.408A1.381 1.381 0 0 1 0 18.613V4.166c0-.382.159-.728.417-.98a1.43 1.43 0 0 1 1.001-.409ZM16.168.861H8.832a.124.124 0 0 0-.124.122v1.776h7.584V.983a.119.119 0 0 0-.036-.086.117.117 0 0 0-.088-.036ZM.878 11.067c3.242.912 5.639 1.303 8.882 1.45v.862c-3.241-.145-5.638-.527-8.881-1.42v6.652a.52.52 0 0 0 .159.372.543.543 0 0 0 .38.156H23.58a.54.54 0 0 0 .38-.156.52.52 0 0 0 .16-.372v-6.65c-3.238.89-5.49 1.273-8.725 1.418v-.861c3.237-.15 5.49-.542 8.724-1.45V4.165a.52.52 0 0 0-.159-.372.543.543 0 0 0-.38-.155H1.418a.543.543 0 0 0-.38.155.52.52 0 0 0-.16.372v6.901Zm12.546-.205h-1.848a.106.106 0 0 0-.073.03.101.101 0 0 0-.03.072v3.808a.1.1 0 0 0 .03.071c.018.02.045.03.073.03h1.848a.106.106 0 0 0 .073-.03.101.101 0 0 0 .03-.071v-3.806a.101.101 0 0 0-.03-.072.1.1 0 0 0-.073-.032Z" fill="#2D2E33"/></svg>
